X: 1
T: FROGS' FROLIC -- JIG
B: Ryan's Mammoth Collection of Fiddle Tunes
R: jig
M: 6/8
L: 1/8
Z: Contributed 20010707134435 by John Chambers jmchambers:rcn.net
K: Em
 {F}vEDE G2E | B2E G2E | F2D DFA | ABA AFD \
| {F}EDE G2E | B2E G2A | (Bc)B (AG)F | BGE E2z :|
  ({f}gb)g e2f | (gb)g e2g | (faf) d2e | (faf) d2f \
| ({f}gb)g e2f | (gb)g e2f | (gfe) (bge) | (ef)e e2f |
  ({f}gb)g e2f | (gb)g e2g | (faf) d2e | (faf) d2f \
| (efg) (fga) | (gab) e2B | (Bc)B (AG)F | BGE E2z :|
